docs/.gitbook/assets/icon-plus-top-right-square-16@dark.svg

<svg width="32" height="32" viewBox="0 0 16 16" fill="none" xmlns="http://www.w3.org/2000/svg">
<rect x="0" y="0" width="16" height="16" fill="#181c1f"/>
<path fill-rule="evenodd" clip-rule="evenodd" d="M5.75 2.5C3.95507 2.5 2.5 3.95507 2.5 5.75V10.25C2.5 12.0449 3.95507 13.5 5.75 13.5H10.25C12.0449 13.5 13.5 12.0449 13.5 10.25V9.75C13.5 9.33579 13.8358 9 14.25 9C14.6642 9 15 9.33579 15 9.75V10.25C15 12.8734 12.8734 15 10.25 15H5.75C3.12665 15 1 12.8734 1 10.25V5.75C1 3.12665 3.12665 1 5.75 1H6.25C6.66421 1 7 1.33579 7 1.75C7 2.16421 6.66421 2.5 6.25 2.5H5.75ZM11.5 1C11.9142 1 12.25 1.33579 12.25 1.75V3.75H14.25C14.6642 3.75 15 4.08579 15 4.5C15 4.91421 14.6642 5.25 14.25 5.25H12.25V7.25C12.25 7.66421 11.9142 8 11.5 8C11.0858 8 10.75 7.66421 10.75 7.25V5.25H8.75C8.33579 5.25 8 4.91421 8 4.5C8 4.08579 8.33579 3.75 8.75 3.75H10.75V1.75C10.75 1.33579 11.0858 1 11.5 1Z" fill="#fff"/>
</svg>

<svg xmlns="http://www.w3.org/2000/svg" width="32" height="32" fill="none" viewBox="0 0 16 16"><path fill="#181c1f" d="M0 0h16v16H0z"/><path fill="#fff" fill-rule="evenodd" d="M5.75 2.5A3.25 3.25 0 0 0 2.5 5.75v4.5a3.25 3.25 0 0 0 3.25 3.25h4.5a3.25 3.25 0 0 0 3.25-3.25v-.5a.75.75 0 0 1 1.5 0v.5A4.75 4.75 0 0 1 10.25 15h-4.5A4.75 4.75 0 0 1 1 10.25v-4.5A4.75 4.75 0 0 1 5.75 1h.5a.75.75 0 0 1 0 1.5zM11.5 1a.75.75 0 0 1 .75.75v2h2a.75.75 0 0 1 0 1.5h-2v2a.75.75 0 0 1-1.5 0v-2h-2a.75.75 0 0 1 0-1.5h2v-2A.75.75 0 0 1 11.5 1" clip-rule="evenodd"/></svg>
